Resources/Icons/PCGEx_Editor_RotOrder_YZ.svg

<?xml version="1.0" encoding="UTF-8"?>
<svg id="icons" xmlns="http://www.w3.org/2000/svg" viewBox="0 0 100 100">
  <defs>
    <style>
      .cls-1 {
        fill: #2c80ed;
      }

      .cls-2 {
        fill: none;
        opacity: .5;
        stroke: #000;
        stroke-miterlimit: 10;
        stroke-width: 5px;
      }

      .cls-3 {
        fill: #67a900;
      }
    </style>
  </defs>
  <line class="cls-2" x1="30.25" y1="50.03" x2="69.78" y2="50.03"/>
  <g>
    <path d="M27.73,65.96v-10.28l-8.27-16.15c-.14-.33-.28-.89-.28-1.36,0-1.64,1.64-3.05,3.33-3.05.99,0,2.11.42,2.68,1.41l5.87,11.65,5.82-11.65c.57-.99,1.69-1.41,2.73-1.41,1.69,0,3.33,1.41,3.33,3.05,0,.42-.19.94-.33,1.36l-8.22,16.15v10.28c0,1.64-1.45,3.1-3.33,3.1s-3.33-1.41-3.33-3.1Z"/>
    <path class="cls-3" d="M26.36,63.91v-10.28l-8.27-16.15c-.14-.33-.28-.89-.28-1.36,0-1.64,1.64-3.05,3.33-3.05.99,0,2.11.42,2.68,1.41l5.87,11.65,5.82-11.65c.57-.99,1.69-1.41,2.73-1.41,1.69,0,3.33,1.41,3.33,3.05,0,.42-.19.94-.33,1.36l-8.22,16.15v10.28c0,1.64-1.45,3.1-3.33,3.1s-3.33-1.41-3.33-3.1Z"/>
  </g>
  <g>
    <path d="M76.37,68.63h-16.1c-1.93,0-3.38-1.45-3.38-3.19,0-.61.42-1.6.66-2.07,4.6-7.61,8.64-14.09,13.29-21.79h-10.61c-1.83,0-3.24-1.32-3.24-3.01s1.41-3.05,3.24-3.05h15.92c1.97,0,3.43,1.41,3.43,3.15,0,.85-.33,1.5-.66,2.02l-13.38,21.88h10.85c1.74,0,3.29,1.32,3.29,3.01s-1.5,3.05-3.29,3.05Z"/>
    <path class="cls-1" d="M75,66.58h-16.1c-1.93,0-3.38-1.45-3.38-3.19,0-.61.42-1.6.66-2.07,4.6-7.61,8.64-14.09,13.29-21.79h-10.61c-1.83,0-3.24-1.32-3.24-3.01s1.41-3.05,3.24-3.05h15.92c1.97,0,3.43,1.41,3.43,3.15,0,.85-.33,1.5-.66,2.02l-13.38,21.88h10.85c1.74,0,3.29,1.32,3.29,3.01s-1.5,3.05-3.29,3.05Z"/>
  </g>
</svg>

<svg id="icons" xmlns="http://www.w3.org/2000/svg" viewBox="0 0 100 100">
    <defs>
        <style>
            .cls-1{fill:none;stroke:#000;stroke-miterlimit:10;stroke-width:5px;opacity:0.5;}.cls-2{fill:#67a900;}.cls-3{fill:#2c80ed;}
        </style>
    </defs>
    <line class="cls-1" x1="30.25" y1="50.03" x2="69.78" y2="50.03"/>
    <path d="M27.73,66V55.67L19.46,39.52a3.9,3.9,0,0,1-.28-1.36,3.33,3.33,0,0,1,3.33-3.06,3.06,3.06,0,0,1,2.68,1.41l5.87,11.65,5.82-11.65a3.11,3.11,0,0,1,2.73-1.41,3.33,3.33,0,0,1,3.33,3.06,4.5,4.5,0,0,1-.33,1.36L34.39,55.67V66a3.24,3.24,0,0,1-3.33,3.1A3.21,3.21,0,0,1,27.73,66Z"/>
    <path class="cls-2"
          d="M26.36,63.91V53.62L18.1,37.47a3.9,3.9,0,0,1-.29-1.36,3.33,3.33,0,0,1,3.34-3,3,3,0,0,1,2.67,1.4L29.7,46.11l5.82-11.65a3.07,3.07,0,0,1,2.72-1.4,3.33,3.33,0,0,1,3.34,3,4.82,4.82,0,0,1-.33,1.36L33,53.62V63.91a3.34,3.34,0,0,1-6.67,0Z"/>
    <path d="M76.37,68.63H60.26a3.26,3.26,0,0,1-3.38-3.19,6,6,0,0,1,.65-2.07c4.61-7.6,8.65-14.08,13.29-21.78H60.21a3.09,3.09,0,0,1-3.24-3,3.15,3.15,0,0,1,3.24-3H76.13a3.25,3.25,0,0,1,3.43,3.14,3.65,3.65,0,0,1-.66,2L65.52,62.57H76.37a3,3,0,1,1,0,6.06Z"/>
    <path class="cls-3"
          d="M75,66.58H58.89a3.27,3.27,0,0,1-3.38-3.19,5.85,5.85,0,0,1,.66-2.07c4.6-7.6,8.64-14.08,13.29-21.78H58.84a3.08,3.08,0,0,1-3.23-3,3.14,3.14,0,0,1,3.23-3.05H74.77a3.25,3.25,0,0,1,3.42,3.14,3.65,3.65,0,0,1-.66,2L64.15,60.53H75a3,3,0,1,1,0,6Z"/>
</svg>
